images/storage-img.svg

<svg width="52" height="51" viewBox="0 0 52 51" fill="none" xmlns="http://www.w3.org/2000/svg">
<path d="M51.1332 25.0679H31.3125C30.8339 25.0679 30.4458 25.4549 30.4458 25.9323C30.4458 26.4096 30.8339 26.7967 31.3125 26.7967H50.2666V35.4407H45.9332V29.3899C45.9332 28.9125 45.5452 28.5255 45.0666 28.5255C44.588 28.5255 44.1999 28.9125 44.1999 29.3899V35.4407H20.8V26.7967H26C26.4786 26.7967 26.8666 26.4096 26.8666 25.9323C26.8666 25.4549 26.4786 25.0679 26 25.0679H19.9333C19.4547 25.0679 19.0666 25.4549 19.0666 25.9323V36.3052C19.0666 36.7825 19.4547 37.1696 19.9333 37.1696H27.7333V38.8984H19.9333C19.4547 38.8984 19.0666 39.2854 19.0666 39.7628V45.8136H16.4666V44.9492C16.4666 44.4719 16.0786 44.0848 15.6 44.0848H13V39.7628C13 39.2854 12.6119 38.8984 12.1333 38.8984C11.6547 38.8984 11.2666 39.2854 11.2666 39.7628V44.9492C11.2666 45.4266 11.6547 45.8136 12.1333 45.8136H14.7333V47.5424H6.06666V45.8136H8.66665C9.14526 45.8136 9.53331 45.4266 9.53331 44.9492V39.7628C9.53331 39.2854 9.14526 38.8984 8.66665 38.8984C8.18804 38.8984 7.79998 39.2854 7.79998 39.7628V44.0848H5.19999C4.72138 44.0848 4.33332 44.4719 4.33332 44.9492V45.8136H0.866665C0.388053 45.8136 0 46.2007 0 46.678C0 47.1554 0.388053 47.5424 0.866665 47.5424H4.33332V48.4068C4.33332 48.8842 4.72138 49.2712 5.19999 49.2712H15.6C16.0786 49.2712 16.4666 48.8842 16.4666 48.4068V47.5424H19.0666V50.1357C19.0666 50.613 19.4547 51.0001 19.9333 51.0001H51.1332C51.6118 51.0001 51.9999 50.613 51.9999 50.1357V39.7628C51.9999 39.2854 51.6118 38.8984 51.1332 38.8984H43.3333V37.1696H51.1332C51.6118 37.1696 51.9999 36.7825 51.9999 36.3052V25.9323C51.9999 25.4549 51.6118 25.0679 51.1332 25.0679ZM50.2666 49.2712H20.8V40.6272H44.1999V46.678C44.1999 47.1554 44.588 47.5424 45.0666 47.5424C45.5452 47.5424 45.9332 47.1554 45.9332 46.678V40.6272H50.2666V49.2712ZM41.5999 38.8984H29.4666V37.1696H41.5999V38.8984Z" fill="#FFBB01"/>
<path d="M25.9996 28.5254C24.564 28.5254 23.4 29.6865 23.4 31.1186C23.4 32.5511 24.564 33.7118 25.9996 33.7118C27.4353 33.7118 28.5993 32.5511 28.5993 31.1186C28.5993 29.6865 27.4353 28.5254 25.9996 28.5254ZM25.9996 31.983C25.5211 31.983 25.1331 31.596 25.1331 31.1186C25.1331 30.6412 25.5211 30.2542 25.9996 30.2542C26.4782 30.2542 26.8662 30.6412 26.8662 31.1186C26.8662 31.596 26.4782 31.983 25.9996 31.983Z" fill="#FFBB01"/>
<path d="M31.2001 33.7118C31.6786 33.7118 32.0666 33.3248 32.0666 32.8474V29.3898C32.0666 28.9124 31.6786 28.5254 31.2001 28.5254C30.7215 28.5254 30.3335 28.9124 30.3335 29.3898V32.8474C30.3335 33.3248 30.7215 33.7118 31.2001 33.7118Z" fill="#FFBB01"/>
<path d="M35.5332 32.8474V29.3898C35.5332 28.9124 35.1452 28.5254 34.6666 28.5254C34.1881 28.5254 33.8001 28.9124 33.8001 29.3898V32.8474C33.8001 33.3248 34.1881 33.7118 34.6666 33.7118C35.1452 33.7118 35.5332 33.3248 35.5332 32.8474Z" fill="#FFBB01"/>
<path d="M38.9998 32.8474V29.3898C38.9998 28.9124 38.6118 28.5254 38.1332 28.5254C37.6547 28.5254 37.2667 28.9124 37.2667 29.3898V32.8474C37.2667 33.3248 37.6547 33.7118 38.1332 33.7118C38.6118 33.7118 38.9998 33.3248 38.9998 32.8474Z" fill="#FFBB01"/>
<path d="M42.4663 32.8474V29.3898C42.4663 28.9124 42.0783 28.5254 41.5998 28.5254C41.1212 28.5254 40.7332 28.9124 40.7332 29.3898V32.8474C40.7332 33.3248 41.1212 33.7118 41.5998 33.7118C42.0783 33.7118 42.4663 33.3248 42.4663 32.8474Z" fill="#FFBB01"/>
<path d="M27.7327 44.0848C27.2542 44.0848 26.8662 44.4718 26.8662 44.9492C26.8662 45.4265 26.4782 45.8136 25.9996 45.8136C25.5211 45.8136 25.1331 45.4265 25.1331 44.9492C25.1331 44.4718 25.5211 44.0848 25.9996 44.0848C26.4782 44.0848 26.8662 43.6977 26.8662 43.2204C26.8662 42.743 26.4782 42.356 25.9996 42.356C24.564 42.356 23.4 43.5171 23.4 44.9492C23.4 46.3817 24.564 47.5424 25.9996 47.5424C27.4353 47.5424 28.5993 46.3817 28.5993 44.9492C28.5993 44.4718 28.2113 44.0848 27.7327 44.0848Z" fill="#FFBB01"/>
<path d="M31.2001 42.356C30.7215 42.356 30.3335 42.743 30.3335 43.2204V46.678C30.3335 47.1554 30.7215 47.5424 31.2001 47.5424C31.6786 47.5424 32.0666 47.1554 32.0666 46.678V43.2204C32.0666 42.743 31.6786 42.356 31.2001 42.356Z" fill="#FFBB01"/>
<path d="M34.6666 42.356C34.1881 42.356 33.8001 42.743 33.8001 43.2204V46.678C33.8001 47.1554 34.1881 47.5424 34.6666 47.5424C35.1452 47.5424 35.5332 47.1554 35.5332 46.678V43.2204C35.5332 42.743 35.1452 42.356 34.6666 42.356Z" fill="#FFBB01"/>
<path d="M38.1332 42.356C37.6547 42.356 37.2667 42.743 37.2667 43.2204V46.678C37.2667 47.1554 37.6547 47.5424 38.1332 47.5424C38.6118 47.5424 38.9998 47.1554 38.9998 46.678V43.2204C38.9998 42.743 38.6118 42.356 38.1332 42.356Z" fill="#FFBB01"/>
<path d="M41.5998 42.356C41.1212 42.356 40.7332 42.743 40.7332 43.2204V46.678C40.7332 47.1554 41.1212 47.5424 41.5998 47.5424C42.0783 47.5424 42.4663 47.1554 42.4663 46.678V43.2204C42.4663 42.743 42.0783 42.356 41.5998 42.356Z" fill="#FFBB01"/>
<path d="M6.569 30.9545C6.68368 31.0052 6.80767 31.0313 6.93293 31.0322C7.33453 31.0263 7.67899 30.7456 7.76575 30.3548C7.85207 29.9635 7.65826 29.5646 7.29687 29.3899C3.22295 27.5277 0.999157 23.0871 1.95427 18.7199C2.90895 14.3527 6.78482 11.2386 11.2663 11.2374C12.1456 11.2369 13.0207 11.3589 13.8663 11.6003C14.2979 11.7249 14.7528 11.4995 14.9149 11.082C17.0959 5.43977 22.5367 1.7213 28.5996 1.7289C35.505 1.76266 41.4717 6.54897 42.9863 13.2688C43.0637 13.6153 43.3456 13.8791 43.6968 13.9344C47.4791 14.5371 50.2632 17.7901 50.2662 21.6102C50.2624 21.8618 50.245 22.1129 50.2141 22.3624C50.1824 22.5945 50.2467 22.83 50.3919 23.0141C50.5374 23.1981 50.7516 23.3154 50.9856 23.3391C51.2171 23.3631 51.4485 23.2935 51.6275 23.1453C51.807 22.9976 51.9191 22.784 51.939 22.5527C51.9771 22.24 51.9974 21.9255 51.9995 21.6102C52.0173 17.1531 48.9116 13.2886 44.5461 12.3352C42.6431 5.09704 36.1021 0.0372258 28.5996 8.33813e-05C22.0894 -0.0205982 16.1857 3.80761 13.5628 9.75082C12.8083 9.58917 12.0381 9.50771 11.2663 9.50855C5.97486 9.51404 1.40033 13.1916 0.270871 18.3476C-0.858164 23.5037 1.76172 28.7488 6.569 30.9545Z" fill="#FFBB01"/>
<path d="M13.8666 31.6463C13.9381 31.6586 14.0118 31.6586 14.0833 31.6463C15.0713 31.3956 16.0191 31.0086 16.8996 30.4966C17.0989 30.381 17.2436 30.191 17.302 29.969C17.3604 29.7466 17.3278 29.5106 17.2114 29.3123C16.9707 28.9037 16.4451 28.7648 16.033 29.0012C15.2866 29.4326 14.4848 29.7613 13.65 29.9779C13.1714 30.0374 12.8321 30.473 12.8918 30.9503C12.9514 31.4277 13.3881 31.7662 13.8666 31.7067V31.6463Z" fill="#FFBB01"/>
<path d="M10.3993 37.1695C10.8779 37.1695 11.266 36.7824 11.266 36.3051V22.7341L13.1466 25.5435C13.3061 25.7849 13.5761 25.9309 13.866 25.9322C14.0365 25.9343 14.2033 25.8828 14.3425 25.7853C14.7382 25.5215 14.8465 24.9893 14.5854 24.5925L11.1187 19.4061C11.1187 19.4061 11.1187 19.4061 11.0751 19.3626C10.911 19.1583 10.6621 19.0393 10.3993 19.0393C10.1365 19.0393 9.88772 19.1583 9.72352 19.3626C9.72352 19.3626 9.72352 19.3626 9.67994 19.4061L6.21328 24.5925C6.00169 24.9859 6.12526 25.4751 6.4985 25.7216C6.87132 25.9681 7.37109 25.8908 7.65208 25.5435L9.53267 22.7341V36.3051C9.53267 36.7824 9.92072 37.1695 10.3993 37.1695Z" fill="#FFBB01"/>
<path d="M32.5432 15.7063C32.1458 15.4459 31.6118 15.554 31.3473 15.9486L29.4667 18.7579V8.64419C29.4667 8.16683 29.0786 7.77979 28.6 7.77979C28.1214 7.77979 27.7334 8.16683 27.7334 8.64419V18.7579L25.8528 15.9486C25.697 15.6595 25.3911 15.483 25.0623 15.4932C24.7335 15.5033 24.4389 15.6979 24.3014 15.9959C24.1643 16.2939 24.2079 16.6438 24.414 16.8995L27.8806 22.086C28.0418 22.3249 28.3114 22.4679 28.6 22.4679C28.8886 22.4679 29.1582 22.3249 29.3194 22.086L32.7861 16.8995C33.0472 16.5028 32.9388 15.9701 32.5432 15.7063Z" fill="#FFBB01"/>
</svg>

<svg width="52" height="51" fill="none" xmlns="http://www.w3.org/2000/svg"><path d="M51.133 25.068h-19.82a.866.866 0 100 1.729h18.954v8.644h-4.334V29.39a.866.866 0 00-1.733 0v6.05H20.8v-8.643H26a.866.866 0 100-1.73h-6.067a.866.866 0 00-.866.865v10.373c0 .477.388.865.866.865h7.8v1.728h-7.8a.866.866 0 00-.866.865v6.05h-2.6v-.864a.866.866 0 00-.867-.864H13v-4.322a.866.866 0 00-1.733 0v5.186c0 .478.388.865.866.865h2.6v1.728H6.067v-1.728h2.6a.866.866 0 00.866-.865v-5.186a.866.866 0 00-1.733 0v4.322H5.2a.866.866 0 00-.867.864v.865H.867a.866.866 0 100 1.728h3.466v.865c0 .477.388.864.867.864h10.4a.866.866 0 00.867-.864v-.865h2.6v2.594c0 .477.388.864.866.864h31.2a.866.866 0 00.867-.864V39.763a.866.866 0 00-.867-.865h-7.8V37.17h7.8a.866.866 0 00.867-.865V25.932a.866.866 0 00-.867-.864zm-.866 24.203H20.8v-8.644h23.4v6.051a.866.866 0 001.733 0v-6.05h4.334v8.643zM41.6 38.898H29.467V37.17H41.6v1.728z" fill="#FFBB01"/><path d="M26 28.525a2.597 2.597 0 00-2.6 2.594 2.596 2.596 0 002.6 2.593c1.435 0 2.6-1.16 2.6-2.593a2.597 2.597 0 00-2.6-2.594zm0 3.458a.865.865 0 11-.002-1.731.865.865 0 01.002 1.731zM31.2 33.712a.865.865 0 00.867-.865V29.39a.865.865 0 00-1.733 0v3.457c0 .478.387.865.866.865zM35.533 32.847V29.39a.866.866 0 00-1.733 0v3.457a.865.865 0 001.733 0zM39 32.847V29.39a.866.866 0 00-1.733 0v3.457a.865.865 0 001.733 0zM42.466 32.847V29.39a.865.865 0 00-1.733 0v3.457a.866.866 0 001.733 0zM27.733 44.085a.865.865 0 00-.867.864.866.866 0 11-.866-.864.866.866 0 100-1.729 2.597 2.597 0 00-2.6 2.593 2.596 2.596 0 002.6 2.593c1.435 0 2.6-1.16 2.6-2.593a.866.866 0 00-.867-.864zM31.2 42.356a.866.866 0 00-.866.864v3.458a.866.866 0 001.733 0V43.22a.865.865 0 00-.867-.864zM34.667 42.356a.865.865 0 00-.867.864v3.458a.865.865 0 001.733 0V43.22a.866.866 0 00-.866-.864zM38.133 42.356a.865.865 0 00-.866.864v3.458a.865.865 0 001.733 0V43.22a.866.866 0 00-.867-.864zM41.6 42.356a.866.866 0 00-.867.864v3.458a.866.866 0 001.733 0V43.22a.865.865 0 00-.866-.864zM6.569 30.954c.115.051.239.077.364.078a.865.865 0 00.364-1.642 9.501 9.501 0 01-5.343-10.67 9.528 9.528 0 0111.912-7.12.867.867 0 001.049-.518A14.646 14.646 0 0128.6 1.729c6.905.034 12.872 4.82 14.386 11.54.078.346.36.61.71.665a7.786 7.786 0 016.57 7.676 6.977 6.977 0 01-.052.752.864.864 0 00.772.977.866.866 0 00.953-.786c.038-.313.058-.628.06-.943a9.462 9.462 0 00-7.453-9.275C42.643 5.097 36.102.037 28.6 0a16.374 16.374 0 00-15.037 9.75 10.909 10.909 0 00-2.297-.241C5.975 9.514 1.4 13.192.271 18.348a11.23 11.23 0 006.298 12.607z" fill="#FFBB01"/><path d="M13.867 31.646a.64.64 0 00.216 0 10.97 10.97 0 002.817-1.15.864.864 0 00-.867-1.495 9.562 9.562 0 01-2.383.977.872.872 0 10.217 1.729v-.06z" fill="#FFBB01"/><path d="M10.4 37.17a.866.866 0 00.866-.865v-13.57l1.88 2.809c.16.24.43.387.72.388.17.002.337-.05.476-.147a.863.863 0 00.243-1.192l-3.466-5.187-.044-.043a.867.867 0 00-1.351 0l-.044.043-3.467 5.187a.863.863 0 00.285 1.129.869.869 0 001.154-.178l1.88-2.81v13.571c0 .477.389.864.867.864zM32.543 15.706a.868.868 0 00-1.196.243l-1.88 2.809V8.644a.866.866 0 00-1.734 0v10.114l-1.88-2.81a.867.867 0 00-1.552.048.864.864 0 00.113.903l3.467 5.187a.867.867 0 001.438 0l3.467-5.186a.863.863 0 00-.243-1.194z" fill="#FFBB01"/></svg>
